images_sukapura_svg/cmd/sc_print.svg

<svg viewBox="0 0 16 16" xmlns="http://www.w3.org/2000/svg" xmlns:xlink="http://www.w3.org/1999/xlink"><linearGradient id="a" gradientUnits="userSpaceOnUse" x1="9.5" x2="9.5" y1="7" y2="10"><stop offset="0" stop-color="#fff"/><stop offset=".08333334" stop-color="#fff" stop-opacity=".055147"/><stop offset="1" stop-color="#fff" stop-opacity=".247059"/><stop offset="1" stop-color="#fff" stop-opacity=".481618"/></linearGradient>


     /&amp;amp;gt;
 <rect fill="#0a84ff" height="4.29661" ry="1" width="12" x="2" y="3.70339"/><path d="m5 11v4h6v-4z" fill="#fff" fill-rule="evenodd"/><path d="m4 12v3.142578c0 .474857.3825649.857422.8574219.857422h6.2851561c.474857 0 .838139-.382957.857422-.857422v-3.142578h-1v3h-6v-3z" fill="#98989d"/><path d="m4 1v4h8v-4z" fill="#fff" fill-rule="evenodd"/><path d="m13 10h2v1h-2z" fill="#fff"/><path d="m3.8574219 0c-.474857 0-.8574219.38256487-.8574219.85742188v5.14257812h1 8 1v-5.14257812c0-.47485701-.382565-.85742188-.857422-.85742188zm.1425781 1h8v4h-8z" fill="#98989d"/><path d="m1.5 5.5c-.554 0-1 .446-1 1v4c0 .554.446 1 1 1h2 1 7.5 2.5c.554 0 1-.446 1-1v-4c0-.554-.446-1-1-1h-1v2h-.5-9.5-1v-2z" fill="#98989d" stroke="#616165"/><path d="m2 6.5h.5v2h11v-2h.5c.277 0 .5.446.5 1v2c0 .554-.223 1-.5 1h-12c-.277 0-.5-.446-.5-1v-2c0-.554.223-1 .5-1z" fill="none" stroke="url(#a)" stroke-opacity=".658088"/></svg>

<?xml version="1.0" encoding="UTF-8" standalone="no"?>
<svg
   xmlns:dc="http://purl.org/dc/elements/1.1/"
   xmlns:cc="http://creativecommons.org/ns#"
   xmlns:rdf="http://www.w3.org/1999/02/22-rdf-syntax-ns#"
   xmlns:svg="http://www.w3.org/2000/svg"
   xmlns="http://www.w3.org/2000/svg"
   xmlns:xlink="http://www.w3.org/1999/xlink"
   xmlns:sodipodi="http://sodipodi.sourceforge.net/DTD/sodipodi-0.dtd"
   xmlns:inkscape="http://www.inkscape.org/namespaces/inkscape"
   viewBox="0 0 16 16"
   version="1.1"
   id="svg12"
   sodipodi:docname="sc_print.svg"
   inkscape:version="0.92.3 (unknown)"
   inkscape:export-filename="/home/rizmut/Dokumen/Rizmut/Github/libreoffice-style-colibrex/images_colibrex/cmd/sc_print.png"
   inkscape:export-xdpi="96"
   inkscape:export-ydpi="96"><metadata
   id="metadata18">
  <rdf:RDF>
    <cc:Work
       rdf:about="">
      <dc:format>image/svg+xml</dc:format>
      <dc:type
         rdf:resource="http://purl.org/dc/dcmitype/StillImage" />
      <dc:title></dc:title>
    </cc:Work>
  </rdf:RDF>
</metadata>
<defs
   id="defs16">
  <linearGradient
     gradientTransform="translate(-2,-4)"
     inkscape:collect="always"
     xlink:href="#linearGradient846"
     id="linearGradient848"
     x1="11.5"
     y1="11"
     x2="11.5"
     y2="14"
     gradientUnits="userSpaceOnUse" />
  <linearGradient
     inkscape:collect="always"
     id="linearGradient846">
    <stop
       style="stop-color:#ffffff;stop-opacity:1;"
       offset="0"
       id="stop842" />
    <stop
       id="stop850"
       offset="0.08333334"
       style="stop-color:#ffffff;stop-opacity:0.05514706" />
    <stop
       style="stop-color:#ffffff;stop-opacity:0.24705882;"
       offset="1"
       id="stop852" />
    <stop
       style="stop-color:#ffffff;stop-opacity:0.48161766"
       offset="1"
       id="stop844" />
  </linearGradient>
</defs>
<sodipodi:namedview
   pagecolor="#ffffff"
   bordercolor="#666666"
   borderopacity="1"
   objecttolerance="10"
   gridtolerance="10"
   guidetolerance="10"
   inkscape:pageopacity="0"
   inkscape:pageshadow="2"
   inkscape:window-width="1366"
   inkscape:window-height="706"
   id="namedview14"
   showgrid="true"
   inkscape:zoom="7.375"
   inkscape:cx="23.646879"
   inkscape:cy="0.020283857"
   inkscape:window-x="0"
   inkscape:window-y="0"
   inkscape:window-maximized="1"
   inkscape:current-layer="svg12">
  <inkscape:grid
     type="xygrid"
     id="grid828"
     spacingx="0.5"
     spacingy="0.5"
     empspacing="2" />
</sodipodi:namedview>


     /&amp;gt;
 <rect
   height="4.2966099"
   ry="1"
   width="12"
   x="2"
   y="3.7033901"
   id="rect8"
   style="fill:#0a84ff;fill-opacity:1" />
<path
   d="m5 11v4h6v-4z"
   fill="#fff"
   fill-rule="evenodd"
   id="path2" />
<path
   style="fill:#98989d;fill-opacity:1;stroke:none"
   d="M 4 12 L 4 15.142578 C 4 15.617435 4.3825649 16 4.8574219 16 L 11.142578 16 C 11.617435 16 11.980717 15.617043 12 15.142578 L 12 12 L 11 12 L 11 15 L 5 15 L 5 12 L 4 12 z "
   id="path4" />
<path
   d="m4 1v4h8v-4z"
   fill="#fff"
   fill-rule="evenodd"
   id="path6" />
<path
   d="m13 10h2v1h-2z"
   fill="#fff"
   id="path8" />
<path
   d="m3.8574219 0c-.474857 0-.8574219.38256487-.8574219.85742188v5.14257812h1 8 1v-5.14257812c0-.47485701-.382565-.85742188-.857422-.85742188zm.1425781 1h8v4h-8z"
   fill="#808080"
   id="path10"
   style="fill:#98989d;fill-opacity:1" />
<path
   style="fill:#98989d;fill-opacity:1;stroke:#616165;stroke-opacity:1"
   d="m 1.5,5.5 c -0.554,0 -1,0.446 -1,1 v 4 c 0,0.554 0.446,1 1,1 h 2 1 7.5 2.5 c 0.554,0 1,-0.446 1,-1 v -4 c 0,-0.554 -0.446,-1 -1,-1 h -1 v 2 H 13 3.5 2.5 v -2 z"
   id="path864"
   inkscape:connector-curvature="0"
   sodipodi:nodetypes="sssscccssssccccccs" />
<path
   style="opacity:1;fill:none;fill-opacity:1;stroke:url(#linearGradient848);stroke-width:1;stroke-miterlimit:4;stroke-dasharray:none;stroke-opacity:0.65808835"
   d="m 2,6.5 h 0.5 v 2 h 11 v -2 H 14 c 0.277,0 0.5,0.446 0.5,1 v 2 c 0,0.554 -0.223,1 -0.5,1 H 2 c -0.277,0 -0.5,-0.446 -0.5,-1 v -2 c 0,-0.554 0.223,-1 0.5,-1 z"
   id="rect838"
   inkscape:connector-curvature="0"
   sodipodi:nodetypes="sccccssssssss" />
</svg>
